packages/icons/svg/Payment_SafePayment2_64px.svg

<svg xmlns="http://www.w3.org/2000/svg" viewBox="0 0 64 64"><path d="M29.82 46.24a1 1 0 00.68.26 1 1 0 00.69-.28l10.5-10a1 1 0 00-1.38-1.44l-9.82 9.35-4.81-4.43a1 1 0 10-1.36 1.47z"/><path d="M49 27h-3v-4a14 14 0 00-28 0v4h-3a2 2 0 00-2 2v24a2 2 0 002 2h34a2 2 0 002-2V29a2 2 0 00-2-2zm-28-4a11 11 0 0122 0v4H21zm27 29H16V30h32z"/></svg>

<svg xmlns="http://www.w3.org/2000/svg" viewBox="0 0 64 64"><defs></defs><g id="Icon"><path  d="M29.82,46.24a1,1,0,0,0,.68.26,1,1,0,0,0,.69-.28l10.5-10a1,1,0,0,0-1.38-1.44l-9.82,9.35L25.68,39.7a1,1,0,1,0-1.36,1.47Z"/><path  d="M49,27H46V23a14,14,0,0,0-28,0v4H15a2,2,0,0,0-2,2V53a2,2,0,0,0,2,2H49a2,2,0,0,0,2-2V29A2,2,0,0,0,49,27ZM21,23a11,11,0,0,1,22,0v4H21ZM48,52H16V30H48Z"/></g></svg>
